.local/share/icons/Gruvbox-Plus-Dark/mimetypes/scalable/virtualbox-vbox.svg

<svg width="256" height="256" viewBox="0 0 256 256" fill="none" xmlns="http://www.w3.org/2000/svg">
<g opacity="0.4" filter="url(#filter0_f)">
<path fill-rule="evenodd" clip-rule="evenodd" d="M99.4032 15.5636H55.0839H55.0838C46.1734 15.5636 39 22.737 39 31.6474V224.654C39 233.564 46.1734 240.737 55.0838 240.737H55.1727H199.838H199.927C208.838 240.737 216.011 233.564 216.011 224.654L216.011 224.609L216.011 31.6474C216.011 22.737 208.838 15.5636 199.927 15.5636H155.608H99.4032Z" fill="#282828"/>
</g>
<path fill-rule="evenodd" clip-rule="evenodd" d="M99.4032 15H55.0839H55.0838C46.1734 15 39 22.1734 39 31.0838V224.09C39 233 46.1734 240.174 55.0838 240.174H55.1727H199.838H199.927C208.838 240.174 216.011 233 216.011 224.09L216.011 224.046L216.011 31.0838C216.011 22.1734 208.838 15 199.927 15H155.608H99.4032Z" fill="#ebdbb2"/>
<path opacity="0.2" d="M199.838 240.174C208.749 240.174 216.011 232.956 216.011 224.046L216.01 186.5H39V224.09C39 233 46.1734 240.174 55.0838 240.174H199.838Z" fill="url(#paint0_linear)"/>
<path d="M84.5389 223H89.2189L98.9389 195H93.8589L87.6189 213.92C87.4189 214.6 87.1389 215.52 86.9389 216.48C86.6989 215.52 86.4189 214.6 86.2189 213.92L79.9389 195H74.7789L84.5389 223ZM102.795 195V223H114.835C121.755 223 124.195 218.6 124.195 214.72C124.195 212.2 122.915 209.44 119.595 208.24C122.075 207.04 123.195 204.84 123.195 202.48C123.195 198.68 120.995 195 114.235 195H102.795ZM113.595 206.28H107.595V199.44H114.355C117.675 199.44 118.355 201.2 118.355 202.84C118.355 204.88 116.795 206.28 113.595 206.28ZM115.115 218.56H107.595V210.72H113.955C118.315 210.72 119.315 212.76 119.315 214.84C119.315 216.56 118.395 218.56 115.115 218.56ZM140.871 223.48C149.911 223.48 153.151 215.92 153.151 209C153.151 202.08 149.911 194.52 140.871 194.52C131.871 194.52 128.591 202.08 128.591 209C128.591 215.92 131.871 223.48 140.871 223.48ZM140.871 218.88C135.431 218.88 133.551 213.56 133.551 209C133.551 204.68 135.431 199.12 140.871 199.12C146.311 199.12 148.191 204.4 148.191 209C148.191 213.28 146.271 218.88 140.871 218.88ZM174.265 223H179.825L170.985 208.52L179.265 195H173.705L168.225 204L162.745 195H157.185L165.425 208.52L156.585 223H162.145L168.225 213.08L174.265 223Z" fill="url(#paint1_linear)"/>
<path d="M124.989 66L121.667 78.817L110.719 120.899L102.509 93.499L101.629 90.699H40V98.363L95.811 98.557L107.248 136.563L111.256 149.919L114.775 136.416L125.917 93.646L132.564 113.73L136.181 124.63L139.992 113.78L147.861 91.192L157.587 120.998L158.466 123.698H161.302L216.01 123.667V115.635L164.136 115.842L151.673 77.737L148.057 66.737L144.245 77.687L136.376 100.275L129.143 78.571L124.988 66.001L124.989 66Z" fill="url(#paint2_linear)"/>
<path fill-rule="evenodd" clip-rule="evenodd" d="M216.011 31.0838C216.011 22.1734 208.838 15 199.927 15H55.0839C46.1735 15 39 22.1734 39 31.0838V224.09C39 233 46.1734 240.174 55.0838 240.174H199.927C208.838 240.174 216.011 233 216.011 224.09V31.0838ZM211.011 224.09V31.0838C211.011 24.9348 206.076 20 199.927 20H55.0839C48.9349 20 44 24.9348 44 31.0838V224.09C44 230.239 48.9348 235.174 55.0838 235.174H199.927C206.076 235.174 211.01 230.24 211.011 224.092C211.011 224.092 211.011 224.092 211.011 224.092C211.011 224.091 211.011 224.09 211.011 224.09Z" fill="url(#paint3_linear)"/>
<defs>
<filter id="filter0_f" x="23.8778" y="0.441412" width="207.255" height="255.418" filterUnits="userSpaceOnUse" color-interpolation-filters="sRGB">
<feFlood flood-opacity="0" result="BackgroundImageFix"/>
<feBlend mode="normal" in="SourceGraphic" in2="BackgroundImageFix" result="shape"/>
<feGaussianBlur stdDeviation="7.5611" result="effect1_foregroundBlur"/>
</filter>
<linearGradient id="paint0_linear" x1="126.411" y1="186.479" x2="126.452" y2="240.351" gradientUnits="userSpaceOnUse">
<stop stop-color="#83a598"/>
<stop offset="1" stop-color="#458588"/>
</linearGradient>
<linearGradient id="paint1_linear" x1="126.406" y1="183.98" x2="126.445" y2="237.175" gradientUnits="userSpaceOnUse">
<stop stop-color="#83a598"/>
<stop offset="1" stop-color="#458588"/>
</linearGradient>
<linearGradient id="paint2_linear" x1="126.917" y1="65.9679" x2="127.017" y2="150.196" gradientUnits="userSpaceOnUse">
<stop stop-color="#83a598"/>
<stop offset="1" stop-color="#458588"/>
</linearGradient>
<linearGradient id="paint3_linear" x1="126.411" y1="14.914" x2="127.127" y2="240.916" gradientUnits="userSpaceOnUse">
<stop stop-color="#83a598"/>
<stop offset="1" stop-color="#458588"/>
</linearGradient>
</defs>
</svg>

<svg width="256" height="256" fill="none" version="1.1" viewBox="0 0 256 256" xmlns="http://www.w3.org/2000/svg">
  <path d="m99.4 15h-44.32c-8.91 0-16.08 7.173-16.08 16.08v193c0 8.91 7.173 16.08 16.08 16.08h144.8c8.911 0 16.08-7.174 16.08-16.08v-0.044-193c0-8.91-7.173-16.08-16.08-16.08h-100.5z" clip-rule="evenodd" fill="#ebdbb2" fill-rule="evenodd"/>
  <path d="m199.8 240.2c8.911 0 16.17-7.218 16.17-16.13l-1e-3 -37.55h-177v37.59c0 8.91 7.173 16.08 16.08 16.08h144.8z" fill="url(#paint0_linear)" opacity=".2"/>
  <path d="m84.54 223h4.68l9.72-28h-5.08l-6.24 18.92c-0.2 0.68-0.48 1.6-0.68 2.56-0.24-0.96-0.52-1.88-0.72-2.56l-6.28-18.92h-5.16l9.76 28zm18.26-28v28h12.04c6.92 0 9.36-4.4 9.36-8.28 0-2.52-1.28-5.28-4.6-6.48 2.48-1.2 3.6-3.4 3.6-5.76 0-3.8-2.2-7.48-8.96-7.48h-11.44zm10.8 11.28h-6v-6.84h6.76c3.32 0 4 1.76 4 3.4 0 2.04-1.56 3.44-4.76 3.44zm1.52 12.28h-7.52v-7.84h6.36c4.36 0 5.36 2.04 5.36 4.12 0 1.72-0.92 3.72-4.2 3.72zm25.76 4.92c9.04 0 12.28-7.56 12.28-14.48s-3.24-14.48-12.28-14.48c-9 0-12.28 7.56-12.28 14.48s3.28 14.48 12.28 14.48zm0-4.6c-5.44 0-7.32-5.32-7.32-9.88 0-4.32 1.88-9.88 7.32-9.88s7.32 5.28 7.32 9.88c0 4.28-1.92 9.88-7.32 9.88zm33.39 4.12h5.56l-8.84-14.48 8.28-13.52h-5.56l-5.48 9-5.48-9h-5.56l8.24 13.52-8.84 14.48h5.56l6.08-9.92 6.04 9.92z" fill="url(#paint1_linear)"/>
  <path d="m125 66-3.322 12.82-10.95 42.08-8.21-27.4-0.88-2.8h-61.63v7.664l55.81 0.194 11.44 38.01 4.008 13.36 3.519-13.5 11.14-42.77 6.647 20.08 3.617 10.9 3.811-10.85 7.869-22.59 9.726 29.81 0.879 2.7h2.836l54.71-0.031v-8.032l-51.87 0.207-12.46-38.1-3.616-11-3.812 10.95-7.869 22.59-7.233-21.7-4.155-12.57 1e-3 -1e-3z" fill="url(#paint2_linear)"/>
  <path d="m216 31.08c0-8.91-7.173-16.08-16.08-16.08h-144.8c-8.91 0-16.08 7.173-16.08 16.08v193c0 8.91 7.173 16.08 16.08 16.08h144.8c8.911 0 16.08-7.174 16.08-16.08v-193zm-5 193v-193c0-6.149-4.935-11.08-11.08-11.08h-144.8c-6.149 0-11.08 4.935-11.08 11.08v193c0 6.149 4.935 11.08 11.08 11.08h144.8c6.149 0 11.08-4.934 11.08-11.08v-2e-3z" clip-rule="evenodd" fill="url(#paint3_linear)" fill-rule="evenodd"/>
  <defs>
    <linearGradient id="paint0_linear" x1="126.4" x2="126.5" y1="186.5" y2="240.4" gradientUnits="userSpaceOnUse">
      <stop stop-color="#83a598" offset="0"/>
      <stop stop-color="#458588" offset="1"/>
    </linearGradient>
    <linearGradient id="paint1_linear" x1="126.4" x2="126.4" y1="184" y2="237.2" gradientUnits="userSpaceOnUse">
      <stop stop-color="#83a598" offset="0"/>
      <stop stop-color="#458588" offset="1"/>
    </linearGradient>
    <linearGradient id="paint2_linear" x1="126.9" x2="127" y1="65.97" y2="150.2" gradientUnits="userSpaceOnUse">
      <stop stop-color="#83a598" offset="0"/>
      <stop stop-color="#458588" offset="1"/>
    </linearGradient>
    <linearGradient id="paint3_linear" x1="126.4" x2="127.1" y1="14.91" y2="240.9" gradientUnits="userSpaceOnUse">
      <stop stop-color="#83a598" offset="0"/>
      <stop stop-color="#458588" offset="1"/>
    </linearGradient>
  </defs>
</svg>
